actions/symbolic/edit-paste-symbolic.svg

<?xml version="1.0" encoding="UTF-8" standalone="no"?>
<svg xmlns:rdf="http://www.w3.org/1999/02/22-rdf-syntax-ns#" xmlns="http://www.w3.org/2000/svg" version="1.1" xmlns:cc="http://creativecommons.org/ns#" xmlns:dc="http://purl.org/dc/elements/1.1/" viewBox="0 0 16 16">
	<g transform="translate(0 -1036.4)">
		<g fill="#696969" transform="translate(-4,3.9622)">
			<path d="m7 0v0.5 0.5h-1-0.5c-0.277 0-0.5 0.223-0.5 0.5v1c0 0.277 0.223 0.5 0.5 0.5h5c0.277 0 0.5-0.223 0.5-0.5v-1c0-0.277-0.223-0.5-0.5-0.5h-0.5-1v-0.5-0.5h-0.5-1-0.5zm-4.5 1c-0.8224 0-1.5 0.6777-1.5 1.5v12c0 0.822 0.6776 1.5 1.5 1.5h11c0.822 0 1.5-0.678 1.5-1.5v-12c0-0.8223-0.678-1.5-1.5-1.5h-1.609c0.066 0.1527 0.109 0.3185 0.109 0.5v0.5h1.5c0.286 0 0.5 0.2144 0.5 0.5v7.5l-5 5h-6.5c-0.2856 0-0.5-0.214-0.5-0.5v-12c0-0.2856 0.2144-0.5 0.5-0.5h1.5v-0.5c0-0.1815 0.0429-0.3473 0.1094-0.5h-1.6094zm0.5 2v1 1 9h4 1 1v-2.5-0.5-0.5c0-0.277 0.223-0.5 0.5-0.5h0.5 0.5 2.5v-1-1-3-1-1h-1.094c-0.211 0.5755-0.767 1-1.406 1h-0.5-4-0.5c-0.6388 0-1.195-0.4245-1.4062-1h-1.0938zm2.25 3h5.5c0.138 0 0.25 0.112 0.25 0.25v0.5c0 0.138-0.112 0.25-0.25 0.25h-5.5c-0.1385 0-0.25-0.112-0.25-0.25v-0.5c0-0.138 0.1115-0.25 0.25-0.25zm0 2h5.5c0.138 0 0.25 0.112 0.25 0.25v0.5c0 0.138-0.112 0.25-0.25 0.25h-1.75-1-1-1.75c-0.1385 0-0.25-0.112-0.25-0.25v-0.5c0-0.138 0.1115-0.25 0.25-0.25zm0 2h0.75 0.25 0.75 0.75c0.138 0 0.25 0.112 0.25 0.25v0.5c0 0.138-0.112 0.25-0.25 0.25h-0.75-0.75-0.25-0.75c-0.1385 0-0.25-0.112-0.25-0.25v-0.5c0-0.138 0.1115-0.25 0.25-0.25z" transform="translate(4,1032.4)" fill="#bebebe"/>
		</g>
	</g>
</svg>

<?xml version="1.0" encoding="UTF-8" standalone="no"?>
<!-- Created with Inkscape (http://www.inkscape.org/) -->

<svg
   xmlns:dc="http://purl.org/dc/elements/1.1/"
   xmlns:cc="http://creativecommons.org/ns#"
   xmlns:rdf="http://www.w3.org/1999/02/22-rdf-syntax-ns#"
   xmlns:svg="http://www.w3.org/2000/svg"
   xmlns="http://www.w3.org/2000/svg"
   xmlns:sodipodi="http://sodipodi.sourceforge.net/DTD/sodipodi-0.dtd"
   xmlns:inkscape="http://www.inkscape.org/namespaces/inkscape"
   width="16"
   height="16"
   viewBox="0 0 16 16"
   id="svg2"
   version="1.1"
   inkscape:version="0.91 r"
   sodipodi:docname="edit-paste-symbolic.svg">
  <defs
     id="defs4" />
  <sodipodi:namedview
     id="base"
     pagecolor="#ffffff"
     bordercolor="#666666"
     borderopacity="1.0"
     inkscape:pageopacity="0.0"
     inkscape:pageshadow="2"
     inkscape:zoom="22.21875"
     inkscape:cx="7.0663536"
     inkscape:cy="8.5194133"
     inkscape:document-units="px"
     inkscape:current-layer="g4"
     showgrid="true"
     units="px"
     inkscape:window-width="1280"
     inkscape:window-height="745"
     inkscape:window-x="0"
     inkscape:window-y="30"
     inkscape:window-maximized="1">
    <inkscape:grid
       type="xygrid"
       id="grid11760" />
  </sodipodi:namedview>
  <metadata
     id="metadata7">
    <rdf:RDF>
      <cc:Work
         rdf:about="">
        <dc:format>image/svg+xml</dc:format>
        <dc:type
           rdf:resource="http://purl.org/dc/dcmitype/StillImage" />
        <dc:title></dc:title>
      </cc:Work>
    </rdf:RDF>
  </metadata>
  <g
     inkscape:label="Ebene 1"
     inkscape:groupmode="layer"
     id="layer1"
     transform="translate(0,-1036.3622)">
    <g
       transform="translate(-4,3.9622)"
       id="g4"
       style="fill:#696969;fill-opacity:1">
      <path
         style="fill:#bebebe;fill-opacity:1"
         d="M 7 0 L 7 0.5 L 7 1 L 6 1 L 5.5 1 C 5.223 1 5 1.223 5 1.5 L 5 2.5 C 5 2.777 5.223 3 5.5 3 L 10.5 3 C 10.777 3 11 2.777 11 2.5 L 11 1.5 C 11 1.223 10.777 1 10.5 1 L 10 1 L 9 1 L 9 0.5 L 9 0 L 8.5 0 L 7.5 0 L 7 0 z M 2.5 1 C 1.6776 1 1 1.6777 1 2.5 L 1 14.5 C 1 15.322 1.6776 16 2.5 16 L 13.5 16 C 14.322 16 15 15.322 15 14.5 L 15 2.5 C 15 1.6777 14.322 1 13.5 1 L 11.890625 1 C 11.956625 1.1527 12 1.3185 12 1.5 L 12 2 L 13.5 2 C 13.786 2 14 2.2144 14 2.5 L 14 10 L 9 15 L 2.5 15 C 2.2144 15 2 14.786 2 14.5 L 2 2.5 C 2 2.2144 2.2144 2 2.5 2 L 4 2 L 4 1.5 C 4 1.3185 4.042875 1.1527 4.109375 1 L 2.5 1 z M 3 3 L 3 4 L 3 5 L 3 14 L 7 14 L 8 14 L 9 14 L 9 11.5 L 9 11 L 9 10.5 C 9 10.223 9.223 10 9.5 10 L 10 10 L 10.5 10 L 13 10 L 13 9 L 13 8 L 13 5 L 13 4 L 13 3 L 11.90625 3 C 11.69525 3.5755 11.139 4 10.5 4 L 10 4 L 6 4 L 5.5 4 C 4.8612 4 4.30505 3.5755 4.09375 3 L 3 3 z M 5.25 6 L 10.75 6 C 10.888 6 11 6.112 11 6.25 L 11 6.75 C 11 6.888 10.888 7 10.75 7 L 5.25 7 C 5.1115 7 5 6.888 5 6.75 L 5 6.25 C 5 6.112 5.1115 6 5.25 6 z M 5.25 8 L 10.75 8 C 10.888 8 11 8.112 11 8.25 L 11 8.75 C 11 8.888 10.888 9 10.75 9 L 9 9 L 8 9 L 7 9 L 5.25 9 C 5.1115 9 5 8.888 5 8.75 L 5 8.25 C 5 8.112 5.1115 8 5.25 8 z M 5.25 10 L 6 10 L 6.25 10 L 7 10 L 7.75 10 C 7.888 10 8 10.112 8 10.25 L 8 10.75 C 8 10.888 7.888 11 7.75 11 L 7 11 L 6.25 11 L 6 11 L 5.25 11 C 5.1115 11 5 10.888 5 10.75 L 5 10.25 C 5 10.112 5.1115 10 5.25 10 z "
         transform="translate(4,1032.4)"
         id="path6" />
    </g>
  </g>
</svg>
